src/main/resources/icons/JavaUltimateIcons/icons/jsf/component.svg

<svg xmlns="http://www.w3.org/2000/svg" width="16" height="16" viewBox="0 0 16 16">
  <path fill="#F4AF3D" fill-opacity=".7" fill-rule="evenodd" d="M9.33680334,13.5778265 L8.496,14.4388 C8.118,14.8258 7.615,15.0118 7.116,14.9998 C6.652,14.9868 6.191,14.7988 5.839,14.4388 L5.625,14.2198 C6.175,13.8778 6.547,13.2628 6.547,12.5588 L6.547,11.1578 C6.547,10.3178 5.876,9.6308 5.056,9.6308 L3.686,9.6308 C3,9.6308 2.4,10.0118 2.064,10.5748 L1.334,9.8268 C0.889,9.3698 0.889,8.6228 1.335,8.1658 L2.69622633,6.77129127 C1.71459577,6.45325217 1.0003,5.52782011 1.0003,4.4451 C1.0003,3.1001 2.0993,2.0001 3.4443,2.0001 C4.50793059,2.0001 5.41772014,2.68800704 5.751822,3.64098534 L7.02,2.3418 C7.467,1.8858 8.197,1.8858 8.643,2.3418 L10.1520516,3.88707752 C10.1255529,3.74361253 10.1117,3.59588147 10.1117,3.4451 C10.1117,2.1001 11.2107,1.0001 12.5557,1.0001 C13.9007,1.0001 14.9997,2.1001 14.9997,3.4451 C14.9997,4.7881 13.9007,5.8891 12.5557,5.8891 C12.3847995,5.8891 12.2178708,5.8713242 12.0566636,5.83753479 L13.665,7.4848 C14.111,7.9418 14.111,8.6888 13.665,9.1458 L12.525689,10.3124421 C13.3912259,10.6899409 13.9997,11.5554506 13.9997,12.5555 C13.9997,13.8995 12.9007,15.0005 11.5557,15.0005 C10.5751489,15.0005 9.7253446,14.4153285 9.33680334,13.5778265 Z"/>
</svg>

<svg xmlns="http://www.w3.org/2000/svg" width="16" height="16" viewBox="0 0 16 16"><rect id="frame" width="16" height="16" fill="none"/><path fill="#F4AF3D" fill-opacity=".7" fill-rule="evenodd" d="M9.337 13.578l-.841.86a1.855 1.855 0 0 1-2.657 0l-.214-.218c.55-.342.922-.957.922-1.661v-1.401c0-.84-.671-1.527-1.491-1.527h-1.37c-.686 0-1.286.38-1.622.944l-.73-.748a1.2 1.2 0 0 1 .001-1.661L2.696 6.77A2.454 2.454 0 0 1 1 4.445 2.451 2.451 0 0 1 3.444 2c1.064 0 1.974.688 2.308 1.641l1.268-1.3a1.134 1.134 0 0 1 1.623 0l1.51 1.546A2.451 2.451 0 0 1 12.556 1c1.344 0 2.443 1.1 2.443 2.445a2.451 2.451 0 0 1-2.943 2.393l1.608 1.647a1.198 1.198 0 0 1 0 1.66l-1.14 1.167A2.454 2.454 0 0 1 14 12.556 2.452 2.452 0 0 1 11.556 15c-.98 0-1.83-.586-2.22-1.423z"/></svg>
